preferences/32/preferences-releasenotes.svg

<svg width="32" height="32" version="1.1" viewBox="0 0 32 32" xmlns="http://www.w3.org/2000/svg" xmlns:xlink="http://www.w3.org/1999/xlink">
<defs>
<linearGradient id="linearGradient3403" x1="6.9492" x2="11.215" y1="4.5549" y2="59.052" gradientUnits="userSpaceOnUse">
<stop style="stop-color:#32373c" offset="0"/>
<stop style="stop-color:#1a1a1a" offset=".36805"/>
<stop style="stop-color:#31363b" offset="1"/>
</linearGradient>
<linearGradient id="linearGradient20558" x1="25.802" x2="25.111" y1="20.374" y2="58.913" gradientUnits="userSpaceOnUse">
<stop style="stop-color:#3d3d3d" offset="0"/>
<stop offset=".61772"/>
<stop style="stop-color:#3d3d3d" offset="1"/>
</linearGradient>
<linearGradient id="linearGradient4557" x1="43.5" x2="44.142" y1="64.012" y2=".30621" gradientTransform="translate(.36068 -.13017)" gradientUnits="userSpaceOnUse">
<stop style="stop-color:#141618" offset="0"/>
<stop style="stop-color:#686868" offset=".51821"/>
<stop style="stop-color:#31363b" offset="1"/>
</linearGradient>
<linearGradient id="a" x1="29" x2="26" y1="29" y2="4" gradientTransform="matrix(-1,0,0,1,52,-3)" gradientUnits="userSpaceOnUse">
<stop stop-color="#cfd2d5" offset="0"/>
<stop stop-color="#eff0f1" offset="1"/>
</linearGradient>
<linearGradient id="b" x1="2" x2="30" y1="30" y2="2" gradientTransform="matrix(-1,0,0,1,32.001,0)" gradientUnits="userSpaceOnUse">
<stop stop-color="#eff0f1" offset="0"/>
<stop stop-color="#fcfcfc" offset="1"/>
</linearGradient>
<linearGradient id="c" x1="2.001" x2="29.999" y1="29.998" y2="2" gradientTransform="matrix(-1,0,0,1,32.001,0)" gradientUnits="userSpaceOnUse">
<stop stop-color="#31363b" offset="0"/>
<stop stop-color="#4f575f" offset="1"/>
</linearGradient>
<linearGradient id="d" x1="23.001" x2="15.001" y1="20" y2="12" gradientUnits="userSpaceOnUse">
<stop stop-color="#7ceca4" offset="0"/>
<stop stop-color="#7cbcec" offset="1"/>
</linearGradient>
<linearGradient id="e" x1="30" x2="25" y1="30" y2="2" gradientUnits="userSpaceOnUse">
<stop stop-color="#6f7881" offset="0"/>
<stop stop-color="#bdc3c7" offset="1"/>
</linearGradient>
<linearGradient id="f" x1="25" x2="30" y1="25" y2="30" gradientUnits="userSpaceOnUse">
<stop stop-color="#292c2f" offset="0"/>
<stop stop-opacity="0" offset="1"/>
</linearGradient>
</defs>
<rect x="2.342" y="2.2043" width="27.724" height="28.137" ry="0" style="fill-rule:evenodd;fill:#191919"/>
<g transform="translate(.34 .20434)" fill-rule="evenodd">
<path d="m26 4v2h-1v21.5a2.5 2.5 0 0 0 2.5 2.5 2.5 2.5 0 0 0 2.5-2.5v-21.5a2 2 0 0 0-2-2z" fill="url(#a)" style="fill:url(#a)"/>
<path d="m26.001 2v27a1 1 0 0 0 0.707 0.955 6 6 0 0 1-0.707 0.045h-22c-1.105 0-2.042-0.896-2-2v-26z" fill="url(#b)" style="fill:url(#b)"/>
<path d="m4.002 4v5h5v-5zm0.998 1h1v1h1v-1h1v1h-1v1h1v1h-1v-1h-1v1h-1zm6 0v1h13v-1zm0 3v1h13v-1zm-6.998 3v1h8v-1zm10 0v10h10v-10zm-10 3v1h8v-1zm0 3v1h8v-1zm0 3v1h8v-1zm0 4v1h20v-1zm0 3v1h20v-1z" fill="url(#c)" style="fill:url(#c)"/>
<path d="m15.001 12h8v8h-8z" fill="url(#d)" style="fill:url(#d)"/>
<path d="m2.002 2v26c-0.029 0.742 0.39 1.38 1 1.727v3e-3a2 2 0 0 0 1 0.27h1a2 2 0 0 1-2-2v-25h21.998v-1h-21.998z" fill="#bdc3c7"/>
<path d="m25 2v25.5a2.5 2.5 0 1 0 5 0v-22a1.5 1.5 0 0 0-3 0v22a0.5 0.5 0 0 0 1 0v-22a0.5 0.5 0 0 1 1 0v22a1.5 1.5 0 0 1-3 0v-25.5z" fill="url(#e)" style="fill:url(#e)"/>
<path d="m26 2v26a2 2 0 0 0 2 2 2 2 0 0 0 2-2v-22z" fill="url(#f)" opacity=".2" style="fill:url(#f)"/>
</g>
<path transform="matrix(.49531 0 0 .49531 .32409 .23228)" d="m4.7043 3.9815-0.012938 56.82h53.904l1.0222-2.8664s-23.875 0.76639-32.844-4.1404c-10.516-5.7529-15.372-49.697-15.372-49.697z" style="fill:url(#linearGradient3403);mix-blend-mode:normal;stroke-linejoin:round;stroke-width:1.1624;stroke:url(#linearGradient20558)"/>
<rect transform="matrix(.46399 0 0 .46305 1.1563 1.2331)" x="1.0324" y=".59551" width="62.567" height="62.867" rx="5.803" ry="6.2447" style="fill:none;stroke-linejoin:round;stroke-miterlimit:7.8;stroke-opacity:.99515;stroke-width:3.7137;stroke:url(#linearGradient4557)"/>
</svg>

<?xml version="1.0" encoding="UTF-8" standalone="no"?>
<!-- Created with Inkscape (http://www.inkscape.org/) -->

<svg
   width="32"
   height="32"
   version="1.1"
   viewBox="0 0 32 32"
   id="svg22"
   sodipodi:docname="preferences-releasenotes.svg"
   inkscape:version="1.1.2 (0a00cf5339, 2022-02-04)"
   xmlns:inkscape="http://www.inkscape.org/namespaces/inkscape"
   xmlns:sodipodi="http://sodipodi.sourceforge.net/DTD/sodipodi-0.dtd"
   xmlns:xlink="http://www.w3.org/1999/xlink"
   xmlns="http://www.w3.org/2000/svg"
   xmlns:svg="http://www.w3.org/2000/svg">
  <sodipodi:namedview
     id="namedview24"
     pagecolor="#ffffff"
     bordercolor="#666666"
     borderopacity="1.0"
     inkscape:showpageshadow="2"
     inkscape:pageopacity="0.0"
     inkscape:pagecheckerboard="0"
     inkscape:deskcolor="#d1d1d1"
     showgrid="false"
     inkscape:zoom="25.62"
     inkscape:cx="11.202186"
     inkscape:cy="16.900859"
     inkscape:window-width="3440"
     inkscape:window-height="1356"
     inkscape:window-x="0"
     inkscape:window-y="0"
     inkscape:window-maximized="1"
     inkscape:current-layer="svg22"
     inkscape:pageshadow="2" />
  <defs
     id="defs12">
    <linearGradient
       id="linearGradient1005-3-3"
       x1="5.2535"
       x2="9.3823996"
       y1="15.383"
       y2="2.9421"
       gradientTransform="matrix(0.99999,0,0,0.99999,1.632,-0.61743)"
       gradientUnits="userSpaceOnUse">
      <stop
         stop-color="#fa8200"
         offset="0"
         id="stop2" />
      <stop
         stop-color="#ff9600"
         offset=".36953"
         id="stop4" />
      <stop
         stop-color="#ffb400"
         offset="1"
         id="stop6" />
    </linearGradient>
    <filter
       id="filter4014"
       x="-0.062499933"
       y="-0.057692993"
       width="1.1249999"
       height="1.115386"
       color-interpolation-filters="sRGB">
      <feGaussianBlur
         stdDeviation="1.093751"
         id="feGaussianBlur9" />
    </filter>
    <linearGradient
       inkscape:collect="always"
       xlink:href="#linearGradient3487"
       id="linearGradient3403"
       gradientUnits="userSpaceOnUse"
       x1="6.9491749"
       y1="4.5549412"
       x2="11.215498"
       y2="59.052471" />
    <linearGradient
       id="linearGradient3487">
      <stop
         style="stop-color:#32373c;stop-opacity:1"
         offset="0"
         id="stop3481" />
      <stop
         id="stop3483"
         offset="0.36804965"
         style="stop-color:#1a1a1a;stop-opacity:1" />
      <stop
         style="stop-color:#31363b;stop-opacity:1"
         offset="1"
         id="stop3485" />
    </linearGradient>
    <linearGradient
       inkscape:collect="always"
       xlink:href="#linearGradient20604"
       id="linearGradient20558"
       gradientUnits="userSpaceOnUse"
       x1="25.802212"
       y1="20.373846"
       x2="25.111048"
       y2="58.912758" />
    <linearGradient
       id="linearGradient20604">
      <stop
         id="stop20598"
         offset="0"
         style="stop-color:#3d3d3d;stop-opacity:1" />
      <stop
         style="stop-color:#000000;stop-opacity:1"
         offset="0.61772454"
         id="stop20600" />
      <stop
         id="stop20602"
         offset="1"
         style="stop-color:#3d3d3d;stop-opacity:1" />
    </linearGradient>
    <filter
       inkscape:collect="always"
       style="color-interpolation-filters:sRGB"
       id="filter20720"
       x="-0.017024755"
       y="-0.016457183"
       width="1.0340491"
       height="1.0329144">
      <feGaussianBlur
         inkscape:collect="always"
         stdDeviation="0.14745661"
         id="feGaussianBlur20722" />
    </filter>
    <linearGradient
       gradientTransform="translate(0.36067797,-0.13016949)"
       xlink:href="#linearGradient4555"
       id="linearGradient4557"
       x1="43.499737"
       y1="64.011795"
       x2="44.141731"
       y2="0.30621234"
       gradientUnits="userSpaceOnUse" />
    <linearGradient
       id="linearGradient4555">
      <stop
         style="stop-color:#141618;stop-opacity:1"
         offset="0"
         id="stop4551" />
      <stop
         id="stop4559"
         offset="0.51820582"
         style="stop-color:#686868;stop-opacity:1" />
      <stop
         style="stop-color:#31363b;stop-opacity:1"
         offset="1"
         id="stop4553" />
    </linearGradient>
    <filter
       style="color-interpolation-filters:sRGB"
       id="filter4601"
       x="-0.030244762"
       width="1.0604895"
       y="-0.030100647"
       height="1.0602013">
      <feGaussianBlur
         stdDeviation="0.014790289"
         id="feGaussianBlur4603" />
    </filter>
    <linearGradient
       id="a"
       gradientTransform="matrix(-1,0,0,1,52,-3)"
       gradientUnits="userSpaceOnUse"
       x1="29"
       x2="26"
       y1="29"
       y2="4">
      <stop
         offset="0"
         stop-color="#cfd2d5"
         id="stop7" />
      <stop
         offset="1"
         stop-color="#eff0f1"
         id="stop9" />
    </linearGradient>
    <linearGradient
       id="b"
       gradientTransform="matrix(-1,0,0,1,32.001,0)"
       gradientUnits="userSpaceOnUse"
       x1="2"
       x2="30"
       y1="30"
       y2="2">
      <stop
         offset="0"
         stop-color="#eff0f1"
         id="stop17" />
      <stop
         offset="1"
         stop-color="#fcfcfc"
         id="stop19" />
    </linearGradient>
    <linearGradient
       id="c"
       gradientTransform="matrix(-1,0,0,1,32.001,0)"
       gradientUnits="userSpaceOnUse"
       x1="2.0009999"
       x2="29.999001"
       y1="29.997999"
       y2="2">
      <stop
         offset="0"
         stop-color="#31363b"
         id="stop27" />
      <stop
         offset="1"
         stop-color="#4f575f"
         id="stop29" />
    </linearGradient>
    <linearGradient
       id="d"
       gradientUnits="userSpaceOnUse"
       x1="23.000999"
       x2="15.001"
       y1="20"
       y2="12">
      <stop
         offset="0"
         stop-color="#7ceca4"
         id="stop22" />
      <stop
         offset="1"
         stop-color="#7cbcec"
         id="stop24" />
    </linearGradient>
    <linearGradient
       id="e"
       gradientUnits="userSpaceOnUse"
       x1="30"
       x2="25"
       y1="30"
       y2="2">
      <stop
         offset="0"
         stop-color="#6f7881"
         id="stop2-8" />
      <stop
         offset="1"
         stop-color="#bdc3c7"
         id="stop4-5" />
    </linearGradient>
    <linearGradient
       id="f"
       gradientUnits="userSpaceOnUse"
       x1="25"
       x2="30"
       y1="25"
       y2="30">
      <stop
         offset="0"
         stop-color="#292c2f"
         id="stop12" />
      <stop
         offset="1"
         stop-opacity="0"
         id="stop14" />
    </linearGradient>
  </defs>
  <rect
     style="display:inline;fill:#191919;fill-opacity:1;fill-rule:evenodd;stroke:none;stroke-width:0.611209;stroke-linejoin:round;stroke-miterlimit:7.8"
     id="rect1192"
     width="27.723557"
     height="28.13693"
     x="2.3420036"
     y="2.2043438"
     ry="0"
     inkscape:label="arriere" />
  <g
     fill-rule="evenodd"
     id="g46"
     transform="translate(0.34000358,0.2043438)">
    <path
       d="M 26,4 V 6 H 25 V 27.5 A 2.5,2.5 0 0 0 27.5,30 2.5,2.5 0 0 0 30,27.5 V 6 A 2,2 0 0 0 28,4 Z"
       fill="url(#a)"
       id="path32"
       style="fill:url(#a)" />
    <path
       d="M 26.001,2 V 29 A 1,1 0 0 0 26.708,29.955 6,6 0 0 1 26.001,30 h -22 c -1.105,0 -2.042,-0.896 -2,-2 V 2 Z"
       fill="url(#b)"
       id="path34"
       style="fill:url(#b)" />
    <path
       d="m 4.002,4 v 5 h 5 V 4 Z M 5,5 H 6 V 6 H 7 V 5 H 8 V 6 H 7 V 7 H 8 V 8 H 7 V 7 H 6 V 8 H 5 Z m 6,0 V 6 H 24 V 5 Z m 0,3 V 9 H 24 V 8 Z m -6.998,3 v 1 h 8 v -1 z m 10,0 v 10 h 10 V 11 Z m -10,3 v 1 h 8 v -1 z m 0,3 v 1 h 8 v -1 z m 0,3 v 1 h 8 v -1 z m 0,4 v 1 h 20 v -1 z m 0,3 v 1 h 20 v -1 z"
       fill="url(#c)"
       id="path36"
       style="fill:url(#c)" />
    <path
       d="m 15.001,12 h 8 v 8 h -8 z"
       fill="url(#d)"
       id="path38"
       style="fill:url(#d)" />
    <path
       d="m 2.002,2 v 26 c -0.029,0.742 0.39,1.38 1,1.727 v 0.003 a 2,2 0 0 0 1,0.27 h 1 a 2,2 0 0 1 -2,-2 V 3 H 25 V 2 H 3.002 Z"
       fill="#bdc3c7"
       id="path40" />
    <path
       d="m 25,2 v 25.5 a 2.5,2.5 0 1 0 5,0 v -22 a 1.5,1.5 0 0 0 -3,0 v 22 a 0.5,0.5 0 0 0 1,0 v -22 a 0.5,0.5 0 0 1 1,0 v 22 a 1.5,1.5 0 0 1 -3,0 V 2 Z"
       fill="url(#e)"
       id="path42"
       style="fill:url(#e)" />
    <path
       d="m 26,2 v 26 a 2,2 0 0 0 2,2 2,2 0 0 0 2,-2 V 6 Z"
       fill="url(#f)"
       opacity="0.2"
       id="path44"
       style="fill:url(#f)" />
  </g>
  <path
     style="display:inline;mix-blend-mode:normal;fill:url(#linearGradient3403);fill-opacity:1;stroke:url(#linearGradient20558);stroke-width:1.16242;stroke-linecap:butt;stroke-linejoin:round;stroke-miterlimit:4;stroke-dasharray:none;stroke-opacity:1;filter:url(#filter20720)"
     d="M 4.7043071,3.9814882 4.6913695,60.80196 H 58.59546 l 1.022155,-2.866369 c 0,0 -23.87537,0.766388 -32.844441,-4.140386 C 16.257548,48.042344 11.401114,4.0978197 11.401114,4.0978197 Z"
     id="path1686"
     sodipodi:nodetypes="ccccscc"
     transform="matrix(0.49530655,0,0,0.49530655,0.32409325,0.23228439)"
     inkscape:label="folder" />
  <rect
     style="display:inline;fill:none;fill-opacity:1;stroke:url(#linearGradient4557);stroke-width:3.71366;stroke-linejoin:round;stroke-miterlimit:7.8;stroke-dasharray:none;stroke-opacity:0.995146;filter:url(#filter4601)"
     id="rect4539"
     width="62.567089"
     height="62.866646"
     x="1.0323594"
     y="0.59551275"
     ry="6.2447233"
     rx="5.8029528"
     transform="matrix(0.46399463,0,0,0.4630489,1.1562887,1.2331482)"
     inkscape:label="contour" />
</svg>
